X:2
T:Devanny's Goat
S:Edel Fox
S:http://comhaltas.ie/music/detail/comhaltaslive_198_segment_5_edel_fox
Z:Jack Gilder
M:C|
R:reel
K:D
DFAB AFAB|defe dBAF|DF~F2 B/c/dAF|EFDF ~E3F|
[A3D3]B AFAB|defe dBAg|fedB AF~F2|1AFEA ~F3E:|2AFEA FAD2||
a3b afdf|agfa efdB|ABde fddf|gefd efdB|
ABde ~f3a|gefd edBd|~A2dB AF~F2|1AFEA FAD2:|2AFEA F3E||
